X:1
T:Io son un pellegrin
T:Io son' un pellegrin
T:Ballata for to stemmer fra  Codex Panciatichi
T:Giovanni da Cascia (14. årh.)
C:Giovanni da Cascia (14. årh.)
%%score [ 1 2 ]
L:1/8
Q:1/4=110
M:2/2
K:C
V:1 treble nm="Alt"
V:2 bass nm="Baryton"
V:1
 E2 (3:2:2E2 A, A,4 | FEED DCDB, | CDB,C D4 | A2 AG (3GFE DC | DEDC (3CB,A, B,C | A,4 A,2 z2 | %6
w: I- * * *|||||* o|
w: ||||||
 E F D E C D B, C | D2 C2 z2 DC | D2 E2 F2 F2 | EF GF FE ED | ^C4 D2 z2 | (3EDC DE FEFD | %12
w: son' un pel- le- grin che vo cer-|can- do li- *|mo- si- na per|dio _ mer- * cè _ chia- *|man- *||
w: ||||||
 E2 FE D2 E2 | GFEF FEED | (3DCB, CD CDB,^C | D8 |: A2 AG (3GFE DE | D2 E2 E2 F2 | AG GF FE ED | %19
w: |||do.|E _ _ _ _ _ _ _|vo can- tan- do|col- * la _ vo- * ce _|
w: ||||Non _ _ _ _ _ _ _|ho se no~'l bor-|don _ e _ la _ scar- *|
 F E2 D- D C2 B, | A,2 B,2 CDB,^C | D4 z2 EF | G2 A2 AG GF | GF EF FE ED | E2 FE DEFE | D4 z2 EF | %26
w: bel- * * * * *||la, con _|dol- ce~as- pet- * to~e _|col- * la _ trec- * cia _|bion- * * * * * *||
w: sel- * * * * *||la, e _|chia- mo, chia- * mo~e _|non _ è _ chi _ ris- *|pon- * * * * * *||
 G2 FE GFED | EFGF EFED | F E2 D ^CD E2 | D8 :| E2 (3:2:2E2 A, A,4 | FEED DCDB, | CDB,C D4 | %33
w: |||da.|E _ _ _|_ _ _ _ _ _ _ _||
w: |||da.||||
 A2 AG (3GFE DC | DEDC (3CB,A, B,C | A,6 z2 | E F D E C D B, C | D2 C2 z2 DC | D2 E2 F2 F2 | %39
w: |||quan- do cre- do~an- da- re~al- la se-|con- da vien- *|to con- tra- rio|
w: ||||||
 EF GF FE ED | ^C4 D2 z2 | (3EDC DE FEFD | E2 FE D2 E2 | GFEF FEED | (3DCB, CD CDB,^C | D8 |] %46
w: mi _ vien _ tem- * pes- *|tan- *|||||do.|
w: |||||||
V:2
 A,8 | G,4 F,4 | E,4 D,4 | D,4 E,2 F,2 | G,4 ^F,2 ^G,2 | A,4 A,2 z2 | G, F, G, E, F, D, E, F, | %7
w: I-|||||* o|son' un pel- le- grin che vo cer-|
w: |||||||
 D,2 E,2 F,2 z2 | G,2 G,2 F,2 F,2 | A,2 A,2 G,2 F,2 | E,4 D,4 | G,4 F,4 | A,2 F,2 G,2 E,2 | %13
w: can- do li-|mo- si- na per|dio mer- cè chia-|man- *|||
w: ||||||
 F,2 A,2 G,2 F,2 | E,8 | D,8 |: D4 D2 C2 | D2 A,2 A,2 F,2 | G,2 A,2 F,2 G,2 | A,4 G,4 | %20
w: ||do.|E _ _|vo can- ta- do|col- la vo- ce|bel- *|
w: |||Non _ _|ho se no~'l bor-|don e la scar-|sel- *|
 A,2 G,2 F,2 E,2 | D,4 D,2 z2 | C,2 D,2 E,2 F,2 | G,2 A,2 F,2 G,2 | A,4 D,2 A,2 | D,4 A,2 z2 | %26
w: |la, con|dol- ce~as- pet- to~e|col- la trec- cia|bion- * *||
w: |la, e|chia- mo, chia- mo~e|non è chi ris-|pon- * *||
 G,4 F,4 | A,4 G,4 | A,2 B,2 ^C4 | D8 :| A,8 | G,4 F,4 | E,4 D,4 | D,4 E,2 F,2 | G,4 ^F,2 ^G,2 | %35
w: |||da.|E|_ _||||
w: |||da.||||||
 A,6 z2 | G, F, G, E, F, D, E, F, | D,2 E,2 F,2 z2 | G,2 G,2 F,2 F,2 | A,2 A,2 G,2 F,2 | E,4 D,4 | %41
w: |quan- do cre- do~an- da- re~al- la se-|con- da vien-|to con- tra- rio|mi vien tem- pes-|tan- *|
w: ||||||
 G,4 F,4 | A,2 F,2 G,2 E,2 | F,2 A,2 G,2 F,2 | E,8 | D,8 |] %46
w: ||||do.|
w: |||||

